X:0994
T:A Highland Dance.
M:6/8
L:1/8
Q:3/8=112
I: || ||
Z:Jack Campin * www.campin.me.uk * 2009
K:A Minor
e|AAe ece|e>ge d2e|GGd dBd|dgd B2 \
e|AAe ece|ege  d2e|GGB d2B|cAA A2:|
g|fga c2e|eAe  c2e|GGd dBd|dgd B2 \
e|fga c2e|eAe  c2e|GGB d2B|cAA A2:|

